symbols/web/iron/materialsymbolssharp/iron_grad200_48px.svg

<svg xmlns="http://www.w3.org/2000/svg" height="48" width="48"><path d="M3.65 36.3V30q0-3.45 2.425-5.9T12 21.65h18.9V17.3H17.35v2.2h-3.7v-5.85h20.9V27.5h2.7V11.65h7.15v3.65h-3.5v15.85h-6.35v5.15Zm3.65-3.65h23.6V25.3H12q-1.95 0-3.325 1.375Q7.3 28.05 7.3 30Zm23.6 0V25.3v7.35Z"/></svg>

<svg xmlns="http://www.w3.org/2000/svg" height="48" width="48"><path d="M3.65 36.3V30Q3.65 26.55 6.075 24.1Q8.5 21.65 12 21.65H30.9V17.3H17.35V19.5H13.65V13.65H34.55V27.5H37.25V11.65H44.4V15.3H40.9V31.15H34.55V36.3ZM7.3 32.65H30.9V25.3H12Q10.05 25.3 8.675 26.675Q7.3 28.05 7.3 30ZM30.9 32.65V30Q30.9 28.05 30.9 26.675Q30.9 25.3 30.9 25.3V32.65Z"/></svg>
